X: 10422
M: 6/8
L: 1/8
K: Bb
c |\
d2d d2d | de=e f2_e | d2d g2f | f2e c2F |
"^minore."D |\
d3 dcB | c3 cBA | BAc BAG | G^FG DE"^D.C."=E |]


